X: 9
T: the Irish Washerwoman
S: Roaring Jelly Collection
O: Irish
M: 6/8
R: jig
K: G
d/c/ |\
"G"BGG DGG | BGB dcB | "D"cAA DAA | cAc edc |
"G"BGG DGG | BGB dcB | "D"cBc Adc | "G"BGG G2 :|
|: g |\
"G"gdg gdg | gdg bag | "D"fdf fdf | fdf agf |
"C"egg "G"dgg | "C"cgg "G"Bgg | "D"cBc Adc | "G"BGG G2 :|

%%sep 1 1 500

